icons/desktop/16/svg/popup-subitem-16.svg

<svg width="16" height="16" viewBox="0 0 16 16" fill="none" xmlns="http://www.w3.org/2000/svg">
<path d="M2.75 1C3.16421 1 3.5 1.33579 3.5 1.75V8.25C3.5 8.94079 4.05921 9.5 4.75 9.5H12.8555L10.1348 6.7793C9.84177 6.4863 9.84177 6.01077 10.1348 5.71777C10.4278 5.4248 10.9033 5.42478 11.1963 5.71777L14.4893 9.01074C15.1723 9.69274 15.1723 10.8033 14.4893 11.4863L11.1963 14.7793C11.0503 14.9253 10.858 14.999 10.666 14.999L10.665 15C10.473 15 10.2808 14.9273 10.1348 14.7803C9.84177 14.4873 9.84177 14.0118 10.1348 13.7188L12.8535 11H4.75C3.23079 11 2 9.76921 2 8.25V1.75C2 1.33579 2.33579 1 2.75 1Z" fill="black"/>
</svg>

<!-- This Source Code Form is subject to the terms of the Mozilla Public
   - License, v. 2.0. If a copy of the MPL was not distributed with this
   - file, You can obtain one at http://mozilla.org/MPL/2.0/. -->
<svg xmlns="http://www.w3.org/2000/svg" width="16" height="16" fill="context-fill" fill-opacity="context-fill-opacity" viewBox="0 0 16 16">
    <path d="M2.75 1a.75.75 0 0 1 .75.75v6.5c0 .69.56 1.25 1.25 1.25h8.105l-2.72-2.72a.75.75 0 0 1 1.061-1.062L14.49 9.01a1.75 1.75 0 0 1 0 2.475l-3.293 3.293a.75.75 0 0 1-.53.22l-.001.001a.75.75 0 0 1-.53-1.281L12.854 11H4.75A2.75 2.75 0 0 1 2 8.25v-6.5A.75.75 0 0 1 2.75 1" />
</svg>
